X:1
T:Perche fuggi da me
T:Perche fuggi da me
T:Cola M.Carduccio
T:Source : Primo libro delle villanelle a 3 voci---Venetia---Figlio d'A.Gardano---1574. Editor : André Vierendeels (14/03/16).
T:Notes : Original clefs : C1, C2, C4 Editorial accidentals above the staff Music by composers from Bari, collected by Giovanni de Antiquis "Alla napolitana"
T:©
T:©
C:Cola M.Carduccio
Z:©
%%score [ 1 2 3 ]
L:1/8
Q:1/4=120
M:2/2
K:C
V:1 treble nm="Soprano" snm="S"
V:2 treble nm="Alto" snm="A"
V:3 treble-8 nm="Tenor" snm="T"
V:1
 z4 G4 | D2 D2 F3 G | A4 z2 c2 | G2 G2 B3 c | d6 B2 | c2 d2 B4 | A4 c4- | c4 B2 B2 | A4 G4 | %9
w: 1)Per-|che fug- gi da|me, per-|che fug- gi da|1)me, Don-|na cru- de-|le, Don-|* na cru-|de- le?|
w: 2)Io|ti son sta- *|to io|ti son sta- *|2)to sem-|pre fi- de-|le, sem-|* pre fi-|de- le,|
w: 3)O-|gn'hor mi fai gu-|star, o-|gn'hor mi fai gu-|3)star as-|sen- tio'e fe-|le, as-|* sen- tio'e|fe- le,|
w: 4)Fug-|gi'a tua po- sta|pur, fug-|gi'a tua po- sta|4)pur in|o- gni lo-|co, in|_ o- gni|lo- co,|
 E4 F2 F2 | G2 G2 A2 c2 | _B2 A2 G4 | A2 A2 c2 c2 | B4 A4 | z2 G2 E2 E2 | A4 F4 | G4 E4 | %17
w: 1)Quan- do d'in-|nan- ti'a voi ven-|g'ap- pres- sa-|re, ma non per|que- sto,|1)ma non per|que- sto|non ti|
w: 2)e tu sem-|pre mi pen- si|strac- ci- a-|re, ma non per|que- sto,|2)ma non per|que- sto|non ti|
w: 3)et mai del|tuo bal- con mi|voi mi- ra-|re, ma non per|que- sto,|3)ma non per|que- sto|non ti|
w: 4)quan- to piu|fug- gi piu cre-|sce'l mio fo-|co, che fug- gen-|do mi,|4)che fug- gen-|do mi|strug- go|
 F2 G2 E4 | D8 :| %19
w: vo- glio'a- ma-|re.|
w: vo- glio'a- ma-|re.|
w: vo- glio'a- ma-|re.|
w: po- co'a po-|co.|
V:2
 C4 G,2 G,2 | B,3 C D4 | z2 F2 C2 C2 | E3 F G4 | D3 E ^F2 G2- | G2 A4 ^G2 | A4 A4- | A4 G2 G2- | %8
w: 1)Per- che fug-|gi de me,|per- che fug-|gi a me,|1)Don- na cru- de-||le, Don-|* na cru-|
w: 2)Io ti son|sta- * to,|io ti son|sta- * to,|2)sem- pre fi- de-||le, sem-|* pre fi-|
 G2 ^F2 G4 | C4 D2 F2 | F2 E2 F2 C2 | D2 F4 E2 | F2 F2 A2 A2- | A2 G4 ^F2 | G4 z2 C2 | F2 F2 D4 | %16
w: * de- le?|1)Quan- do d'in-|nan- ti'a voi ven-|g'ap- pres- sa-|re, ma non per|_ que- *|1)sto, ma|non per que-|
w: * de- le?|2)e tu sepre|mi pensi _ strac-|ci- a- *|re, ma non per|_ que- *|2)sto, ma|non per que-|
"^b" B,4 C2 C2 |"^#" D2 D4 C2 | D8 :| %19
w: sto non ti|vo- glio'a- ma-|re.|
w: sto non ti|vo- glio'a- ma-|re.|
V:3
 z8 | G4 D2 D2 | F3 G A4 | c4 G2 G2 | B3 c d2 e2 | e2 d2 e4 | A4 F4- | F4 G2 G2 | d4 G4 | %9
w: |3)O- gn'hor mi|fai gu- star,|o- gn'hor mi|3)fai gu- star as-|sen- tio'e fe-|le, as-|* sen- tio'e|fe- le,|
w: |4)Fug- gi'a tua|po- sta pur,|fug- gi'a tua|4)po- sta pur in|o- gni lo-|co, in|_ o- gni|lo- co,|
 A4 _B2 d2 | c2 c2 F2 A2 | G2 F2 c4 | F4 z2 F2 | G2 G2 d4 | G4 z2 A2 | F2 F2 _B4 | G4 A2 A2 | %17
w: 3)et mai del|tuo bal- con mi|voi mi- ra-|re, ma|non per que-|3)sto, ma|non per que-|sto non ti|
w: 4)quan- to piu|fug- gi piu cre-|sce'l mio fo-|co, che|fug- gen- do|4)mi, che|fug- gen- do|mi strug- go|
"^b" B2 G2 A4 | D8 :| %19
w: vo- glio'a- ma-|re.|
w: po- co'a po-|co.|

